X:154
T:Stoney Steps Hornpipe. JGi.154
M:C|
L:1/8
Q:1/2=90
S:Joshua Gibbons MS,1823,Tealby,Lincs.
R:.hornpipe
N:Some suspect bits here.
O:Tealby,Lincolnshire
Z:VMP/R.Greig, 2009
K:C
cdef gec’g|afed cBAG|AFEFC2dd|fedc cBAG|
cdef gec’g|bagf cBAG|AFEFC2de|fdcBc4:|
|:FG cc FG cc|defd cBAG|AcBd eg ac’|bagfg4|
affd gedd|defd cBAG|AFEFC2de|fdcBc4:|

